svg/u1f3b1.svg

<svg viewBox="0 0 128 128" xmlns="http://www.w3.org/2000/svg">
  <path d="M111.6,103.54c10.26-12.13,19.02-33.92,9.97-58.94c-4.41-12.18-9.39-18.98-15.19-23.3 c-3.53-2.63-17.63-9.25-36.3-6.36c-13.65,2.12-31.88,10.73-43.73,24.74C14.86,53.29,5.99,64.04,5.58,74.48 c-0.53,13.43,9.59,24.97,10.82,26.84c2.19,3.32,17.13,22.3,45.2,23.27C86.38,125.44,102.52,114.28,111.6,103.54z" fill="#403D3E"/>
  <path d="M28.43,13.9C15.5,23.13,0.97,42.01,3.58,68.49c1.27,12.89,4.44,20.71,8.99,26.32 c2.77,3.42,14.79,13.59,33.62,15.09c18.98,1.51,33.41-2.74,48.48-13.22c30.63-21.31,26.12-53.53,24.81-57.28 S108.36,13.57,81.39,5.72C57.59-1.2,39.87,5.72,28.43,13.9z" fill="#5E6367"/>
  <path d="M51.15,15.69c-14.21-0.51-27.79,10.62-29.1,24.36c-1.31,13.73,7.19,24.19,20.43,26.32 c13.24,2.12,28.55-5.92,31.63-22.76C77.29,26.26,64.72,16.18,51.15,15.69z" fill="#FFFFFF"/>
  <path d="M55.54,39.21c0,0,3.42-0.71,4.1-5.75c0.67-4.96-1.79-9.19-7.53-10.71 c-6.24-1.65-10.47,1.78-11.57,5.39c-1.53,5.02,0.73,7.41,0.73,7.41s-6.12,1.47-6.61,8.69c-0.46,6.81,4.19,10.47,8.86,11.59 c5.77,1.39,12.31-0.19,13.91-7.55C58.76,42.22,55.54,39.21,55.54,39.21z" fill="#303030"/>
  <path d="M45.92,30.03c-0.55,2.07,0.55,4.07,2.71,4.62c2.33,0.59,4.45-0.18,5.02-2.56 c0.5-2.11-0.5-3.97-2.96-4.57C48.67,27.02,46.52,27.77,45.92,30.03z" fill="#FFFFFF"/>
  <path d="M47.68,40.32c-2.62-0.81-6.08,0.2-6.63,3.72c-0.55,3.52,1.56,5.32,4.32,5.82 c2.76,0.5,5.37-0.95,5.88-3.77C51.75,43.28,50.29,41.12,47.68,40.32z" fill="#FFFFFF"/>
</svg>

<svg viewBox="0 0 128 128" xmlns="http://www.w3.org/2000/svg">
  <defs/>
  <path d="M111.6,103.54 C121.86,91.41 130.62,69.62 121.57,44.6 C117.16,32.42 112.18,25.62 106.38,21.3 C102.85,18.67 88.75,12.05 70.08,14.94 C56.43,17.06 38.2,25.67 26.35,39.68 C14.86,53.29 5.99,64.04 5.58,74.48 C5.05,87.91 15.17,99.45 16.4,101.32 C18.59,104.64 33.53,123.62 61.6,124.59 C86.38,125.44 102.52,114.28 111.6,103.54 Z" fill="#403D3E"/>
  <path d="M28.43,13.9 C15.5,23.13 0.97,42.01 3.58,68.49 C4.85,81.38 8.02,89.2 12.57,94.81 C15.34,98.23 27.36,108.4 46.19,109.9 C65.17,111.41 79.6,107.16 94.67,96.68 C125.3,75.37 120.79,43.15 119.48,39.4 C118.17,35.65 108.36,13.57 81.39,5.72 C57.59,-1.2 39.87,5.72 28.43,13.9 Z" fill="#5E6367"/>
  <path d="M51.15,15.69 C36.94,15.18 23.36,26.31 22.05,40.05 C20.74,53.78 29.24,64.24 42.48,66.37 C55.72,68.49 71.03,60.45 74.11,43.61 C77.29,26.26 64.72,16.18 51.15,15.69 Z" fill="#FFFFFF"/>
  <path d="M55.54,39.21 C55.54,39.21 58.96,38.5 59.64,33.46 C60.31,28.5 57.85,24.27 52.11,22.75 C45.87,21.1 41.64,24.53 40.54,28.14 C39.01,33.16 41.27,35.55 41.27,35.55 C41.27,35.55 35.15,37.02 34.66,44.24 C34.2,51.05 38.85,54.71 43.52,55.83 C49.29,57.22 55.83,55.64 57.43,48.28 C58.76,42.22 55.54,39.21 55.54,39.21 Z" fill="#303030"/>
  <path d="M45.92,30.03 C45.37,32.1 46.47,34.1 48.63,34.65 C50.96,35.24 53.08,34.47 53.65,32.09 C54.15,29.98 53.15,28.12 50.69,27.52 C48.67,27.02 46.52,27.77 45.92,30.03 Z" fill="#FFFFFF"/>
  <path d="M47.68,40.32 C45.06,39.51 41.6,40.52 41.05,44.04 C40.5,47.56 42.61,49.36 45.37,49.86 C48.13,50.36 50.74,48.91 51.25,46.09 C51.75,43.28 50.29,41.12 47.68,40.32 Z" fill="#FFFFFF"/>
</svg>
